X: 34650
T: Road To Benderloch, The
R: reel
M: 4/4
K: Amajor
a2|:feee Bccc|effe fffa|feee Bccc|efec B2 a2|
feee Bccc|effe fffg|a2 a2 fe a2|1 e2 cB A2 a2:|2 e2 cB A2 fg||
a2 a2 feee|A2 A2 Bccc|a2 a2 feee|efec B2 fg|
a2 a2 feee|A2 A2 Bccc|a2 a2 fe a2|e2 cB A2 fg|
a2 a2 feee|A2 A2 Bccc|a2 a2 feee|efec B2 a2|
feee Bccc|effe fffg|a2 a2 fe a2|e2 cB A4||

